X:134
T:March,A. RH.134
R:March
S:Rev.R.Harrison’s MS,c1815,Cumbria
O:England
A:Temple Sowerby,Cumbria
Z:vmp.Simon Wilson. Review PJH, 2008.
M:C|
L:1/8
Q:1/2=80
K:G
de/f/|g2gg gdBd|G2GG GBAc|\
BGdB gdBG|d2DD D2de/f/|!
g2gg gdBd|G2GG GBAc|\
BGdB ecAF|G2GG G2:|!
|:c/B/A/G/|d2dd d2c/B/A/G/|F2dd d2c/A/B/G/|\
e3d ^cded|c2AA A2dc|!
cBdB BAcA|AGBG GFED|\
EE cc ee GG|F2dd d2gd|!
dcec cBdB|BAcA GFED|\
EGce dBAB|G2GG G2:|

